X: 39412
T: TapInn, The
R: reel
M: 4/4
K: Cmajor
e2 ef ecdB|cBAG BGGA|Bdcd BGcd|BGAB cdfa|
gecf ecdB|cBAG ABcd|fd d2 fefa|gBdf ec c2:|
|:cdBc dBBd|cdBc GEEc|cdBc defa|gecf ecdB|
cdBc dBcd|cdBc GEEA|FAce fefa|gcdf ec c2:|

